packages/foundations/assets/icons/functional/images/layout/resize_12_filled.svg

<svg width="12" height="12" viewBox="0 0 12 12" fill="none" xmlns="http://www.w3.org/2000/svg">
<g clip-path="url(#clip0_2209_4377)">
<path fill-rule="evenodd" clip-rule="evenodd" d="M4.19995 7.20001C4.50765 7.20001 4.79995 7.45127 4.79995 7.80001V10.2C4.79995 10.5077 4.55087 10.8 4.19995 10.8H1.79995C1.49225 10.8 1.19995 10.5475 1.19995 10.2V7.80001C1.19995 7.49231 1.46202 7.20001 1.79995 7.20001H4.19995ZM9.59995 1.20001C10.2326 1.20001 10.8 1.7117 10.8 2.40001V8.40001C10.8 9.03263 10.2955 9.60001 9.59995 9.60001H5.99995V6.60001C5.99995 6.29231 5.73963 6.00001 5.40062 6.00001H2.39995V2.40001C2.39995 1.7674 2.91597 1.20001 3.59907 1.20001H9.59995Z" fill="#1A1C1F"/>
</g>
<defs>
<clipPath id="clip0_2209_4377">
<rect width="12" height="12" fill="white"/>
</clipPath>
</defs>
</svg>

<svg xmlns="http://www.w3.org/2000/svg" width="12" height="12" fill="none"><g clip-path="url(#a)"><path fill="#1A1C1F" fill-rule="evenodd" d="M4.2 7.2c.308 0 .6.251.6.6v2.4c0 .308-.25.6-.6.6H1.8a.605.605 0 0 1-.6-.6V7.8c0-.308.262-.6.6-.6zm5.4-6c.633 0 1.2.512 1.2 1.2v6c0 .633-.505 1.2-1.2 1.2H6v-3a.61.61 0 0 0-.6-.6h-3V2.4c0-.633.516-1.2 1.2-1.2z" clip-rule="evenodd"/></g><defs><clipPath id="a"><path fill="#fff" d="M0 0h12v12H0z"/></clipPath></defs></svg>
